X: 3230
T: The HARE AMONG THE CORN
%R: jig
B: James Kerr "Merry Melodies" v.3 p.26 #230
Z: 2016 John Chambers <jc:trillian.mit.edu>
N: The 2nd strain has initial repeat but no final repeat; fixed by adding final repeat.
M: 6/8
L: 1/8
K: A
ud |\
cAc efg | aed c2A |\
[1 cAc edc | dBB B2 :|\
[2 Bfa fec | aec A2 :|\
e |\
ecc Acc |
ecc Acc |\
dBB GBB | dBB GBB |\
ecc fdd | ecc a2f |\
edc dBe | aec A2 :|

%%sep 1 1 500
%%sep 1 1 500

